X:1
T:A Million Pieces 
T:Composed by KYUHYUN Arranged by Smyang Piano Edited by Patrick A. 
%%score 1 2
L:1/8
Q:1/4=67
M:4/4
K:E
V:1 treble nm="Piano" snm="Pno."
V:2 bass nm="Piano" snm="Pno."
V:1
"^\n" z2 ED FEGF | A4 ^B,EAB | G4 z2 E2 | !arpeggio![EA]4 z2 FG | E2 G/B/B- B2 z [Cc]/d/ | %5
 ed/c/- c/BG/ z2 z F | E z Ec/B/- B2 E z/ G/ | GG/GAF/- F2 z2 | E2 FG/B/- B2 z c/d/ | %9
 ed/c/- c/BG/ z2 z F | E z Ec/B/- B2 z/ E/ z/ G/ | GG/F/ z E/E/- E2 cd/e/ | %12
 z2 e/d/c/d/ z g/d/ z A/B/ | c/c/c/B/ A/B/c/B/ z2 z c/d/ | ee ee/f/ z c d/c/B | z3 E D2 cd/e/ | %16
 z2 e/d/c/d/ z g/d/ z A/B/ | c/c/c/B/ A/B/c/B/ z2 z c/d/ | ee ee/f/ z e d/c/B- | B3 E D2 G/B/B | %20
 z z/ B/ c/d/B z z/ B/ f/e/d | z =c ^cd/e/ z2 z G | Ae/e/ z A/B/ z f/e/ z B | %23
 e/f/f f/g/g g/a/a z B/e/ | d2 B/f/f z z/ BA/G | z d ef/e/ z z z G/A/ | z e/e/ z B/B/ z f/e/ z B | %27
 A/B/c c/d/e e/a/f z [Bg] | !arpeggio!e8 |] %29
V:2
!ped! E,,[B,,B,]E,F, G,2 B,2!ped-up! |!ped! E,,E,A,B, z2 E,2!ped-up! | %2
!ped! E,,B,,E,F, G,2 E,2!ped-up! |!ped! !arpeggio![E,,E,]4 z4!ped-up! | %4
!ped! E,,B,, E,2 B,,F, B,2!ped-up! |!ped! C,G, C2 G,,D, G,2!ped-up! | %6
!ped! A,,E, A,2 E,,B,, E,2!ped-up! |!ped! F,,C, F,2 B,,F, B,2!ped-up! | %8
!ped! E,,B,, E,2 B,,F, B,2!ped-up! |!ped! C,G, C2 G,,D, G,2!ped-up! | %10
!ped! A,,E, A,2 E,,B,, E,2!ped-up! |!ped! F,,C, F,2 E,,B,, E,2!ped-up! | %12
!ped! C,G, C2 B,,F, B,2!ped-up! |!ped! A,,E,A,E, E,,B,, E,2!ped-up! | %14
!ped! F,,C, F,2 F,2 C,2!ped-up! |!ped! B,,F, B,2 z F, B,,2!ped-up! | %16
!ped! C,G, C2 B,,F, B,2!ped-up! |!ped! A,,E,A,E, E,,B,, E,2!ped-up! | %18
!ped! F,,C, F,2 F,2 C,2!ped-up! |!ped! B,,F, B,2 F,4!ped-up! |!ped! E,,B,, E,2 B,,F, B,2!ped-up! | %21
!ped! =C,G, =C2 ^C,G, ^C2!ped-up! |!ped! F,,C, F,2 G,,D, G,2!ped-up! | %23
!ped! A,,E, A,2 B,,F, B,2!ped-up! |!ped! E,,B,, E,2 B,,F, B,2!ped-up! | %25
!ped! =C,G, =C2 ^C,G, ^C2!ped-up! |!ped! F,,C, F,2 G,,D, G,2!ped-up! | %27
!ped! A,,E, [E,A,]2 B,,F, B,2!ped-up! | !arpeggio![E,,E,]8 |] %29

